X: 1
T: Michael Coleman's
M: 4/4
L: 1/8
R: reel
K: Amin
|e4d4|cBcd {f}e2d2|e^fe^c d^cdB|{d}BABG E^D=D2|
e^fe^c dcdB|cBcd {^f}e2d2|(3e^fg fa gedB|1(3cBA BG EGDG:|2(3cBA BG EGAG||
|:EAAc BGGA|{d}BABd (3e^fed2|DEAA {c}BGGA|(3cBA BG EGDG|
EAAc BGGA|{d}BABd (3e^fe d2|(3e^fg fa gedB|1(3cBA BG EGDG:|2(3cBA BG EGD2||
